X:1
T:[ID 7-74]
T:[ID 7-74]
T:Bezeichnung standardisiert: Schwabisch Schwabisch
T:Urheber unbekannt Datum in der hier transkribierten schriftlichen Quelle: 1776 - 1791
C:Urheber unbekannt
C:Datum in der hier transkribierten schriftlichen Quelle: 1776 - 1791
L:1/8
M:3/8
K:G
V:1 treble 
V:1
 g2 d | dcB | ABc | B/A/B/c/B | g2 d | dcB | ABc | B3 :: gfg | e2 f | gfg | d2 e/f/ | gfe | dcB | %14
 AGF | G3 :| %16

